X: 7
T: Lord Inchiquin
I: Lord Inchiquin	W-4	D	waltz
C: W-4
C: O'Carolan
M: 3/4
Z: Transcribed to abc by Mary Lou Knack
R: waltz
K: D
"D"d2 de fe| d2 ed "A7"cB| "D"A2 F2 A2| f3 g fe|   d2 ed "A7"cB| "D"A2 G2 F2| "G"G2 BA GF| "A7"E4 ag|
"D"f3 e d2| d2 "A7"c2 B2| "D"A2 F2 A2| f3 g fe|   d2 ed "A7"cB| "D"Ad z2 F2| "A7"E3 F D2| "D"D6|]
A2| "A7"AB cd e2| e2 d2 e2| "D"f2 de fd| "A"e4 fe|   "D"de fg a2| a2 b2 g2| f2 d2 f2| "A7"e3 g fe|
   "D"de fg a2| "A7"a2 b2 g2| "D"f3 g e2| d4 f2|   "A7"gf e2 e2| e2 f2 d2| "E7"c3 d B2| "A"A4 ag|
   "D"f3 e d2| "Bm"d2 c2 B2| "D"A2 F2 A2| "G"g4 fe|   "D"d2 ed "A7"cB| "D"Ad z2 F2| "A7"E3 F D2| "D"D4|]
% %text 1/19/02 For use only by Roaring Jelly members

#include "LeftHeader.h"
% ---------- page 4 ----------

